neru-light-classic/32x32/apps/kget.svg

<?xml version="1.0" encoding="UTF-8" standalone="no"?>
<svg
   xmlns:dc="http://purl.org/dc/elements/1.1/"
   xmlns:cc="http://creativecommons.org/ns#"
   xmlns:rdf="http://www.w3.org/1999/02/22-rdf-syntax-ns#"
   xmlns:svg="http://www.w3.org/2000/svg"
   xmlns="http://www.w3.org/2000/svg"
   xmlns:sodipodi="http://sodipodi.sourceforge.net/DTD/sodipodi-0.dtd"
   xmlns:inkscape="http://www.inkscape.org/namespaces/inkscape"
   height="32"
   width="32"
   version="1"
   id="svg12"
   sodipodi:docname="kget.svg"
   inkscape:version="0.92.1 r">
  <metadata
     id="metadata18">
    <rdf:RDF>
      <cc:Work
         rdf:about="">
        <dc:format>image/svg+xml</dc:format>
        <dc:type
           rdf:resource="http://purl.org/dc/dcmitype/StillImage" />
      </cc:Work>
    </rdf:RDF>
  </metadata>
  <defs
     id="defs16" />
  <sodipodi:namedview
     pagecolor="#ffffff"
     bordercolor="#666666"
     borderopacity="1"
     objecttolerance="10"
     gridtolerance="10"
     guidetolerance="10"
     inkscape:pageopacity="0"
     inkscape:pageshadow="2"
     inkscape:window-width="1680"
     inkscape:window-height="955"
     id="namedview14"
     showgrid="false"
     inkscape:zoom="7.375"
     inkscape:cx="-10.711864"
     inkscape:cy="16"
     inkscape:window-x="0"
     inkscape:window-y="0"
     inkscape:window-maximized="1"
     inkscape:current-layer="svg12" />
  <rect
     style="opacity:1;fill:#37a0f2;fill-opacity:1;fill-rule:evenodd;stroke:none;stroke-width:1.03534329;stroke-linecap:round;stroke-linejoin:bevel;stroke-miterlimit:4;stroke-dasharray:none;stroke-dashoffset:0;stroke-opacity:1"
     id="rect4497"
     width="28.203388"
     height="28.203388"
     x="1.8983059"
     y="1.8983059"
     ry="5.575182" />
  <path
     d="m 14.6667,8.0000001 c -0.37,0 -0.667,0.2283 -0.667,0.5122 V 16.3478 H 11.333 L 16,22.6088 20.6667,16.3479 H 18 V 8.5123001 c 0,-0.28397 -0.29733,-0.51223 -0.66667,-0.51223 h -2.6667 z M 15.9997,22.609 H 10.6 c -0.332,0 -0.6,0.31 -0.6,0.695 C 10,23.69 10.268,24 10.6,24 H 21.399 C 21.732,24 22,23.69 22,23.304 22,22.919 21.732,22.609 21.4,22.609 h -5.3997 z"
     id="path8"
     inkscape:connector-curvature="0"
     style="fill:#ffffff" />
</svg>

<svg xmlns="http://www.w3.org/2000/svg" height="32" width="32" version="1"><rect width="28.203" height="28.203" x="1.898" y="1.898" ry="5.575" fill="#37a0f2" fill-rule="evenodd"/><path d="M14.667 8c-.37 0-.667.228-.667.512v7.836h-2.667L16 22.608l4.667-6.26H18V8.512c0-.284-.297-.512-.667-.512h-2.666zM16 22.609h-5.4c-.332 0-.6.31-.6.695 0 .386.268.696.6.696h10.799c.333 0 .601-.31.601-.696 0-.385-.268-.695-.6-.695H16z" fill="#fff"/></svg>
